__todo__/zig.svg

<svg height="181" preserveAspectRatio="xMidYMid" viewBox="0 0 512 181" width="512" xmlns="http://www.w3.org/2000/svg"><path d="m193.890432 0-102.8562891 122.797273h58.9077911l-24.559455 28.437264h-58.1671293l-63.33754107 29.729866 103.05793437-124.0898764h-59.1094365l24.5594547-28.4372633h58.1671298zm-134.4306996 28.4372633-23.2668518 28.4372633h-7.7556173v65.9227464h11.6334259l-24.5594547 28.437264h-15.5112345v-122.7972737zm138.3085076 0v122.7972737h-60.752335l24.559455-28.437264h7.755617v-64.6301435h-11.633426l24.559455-29.7298662z" fill="#f7a41d"/><path d="m461.717748 27.9202222c18.484221 0 37.744004 7.1093158 50.282252 18.0964403l-16.803837 19.3890431c-9.177481-8.1433981-21.715729-12.9260288-33.478415-12.9260288-21.974249 0-39.036607 16.6745772-39.036607 38.131785 0 21.7157282 17.191618 38.2610452 39.165867 38.2610452 7.249706 0 16.251491-2.878417 24.17309-6.911263l-.001416-17.260411-38.778086-18.0964402h62.044938v50.4115122c-13.184549 9.436001-31.022469 15.511235-48.731129 15.511235-37.485483 0-66.052007-26.88614-66.052007-62.4327194 0-35.2880586 29.083565-62.1741984 67.21535-62.1741984zm-125.641.5170411v19.3890432l-68.507952 80.1413785h69.800555v23.266852h-109.871244v-18.096441l68.507952-81.4339809h-67.21535v-23.2668518zm43.948498 0v122.7972737h-28.437263v-122.7972737z" fill="#121212"/></svg>

<?xml version="1.0" encoding="UTF-8"?>
<svg width="512px" height="181px" viewBox="0 0 512 181" version="1.1" xmlns="http://www.w3.org/2000/svg" preserveAspectRatio="xMidYMid">
    <title>Zig</title>
    <g>
        <path d="M193.890432,0 L91.0341429,122.797273 L149.941934,122.797273 L125.382479,151.234537 L67.2153497,151.234537 L3.87780863,180.964403 L106.935743,56.8745266 L47.8263065,56.8745266 L72.3857612,28.4372633 L130.552891,28.4372633 L193.890432,0 Z M59.4597324,28.4372633 L36.1928806,56.8745266 L28.4372633,56.8745266 L28.4372633,122.797273 L40.0706892,122.797273 L15.5112345,151.234537 L0,151.234537 L0,28.4372633 L59.4597324,28.4372633 Z M197.76824,28.4372633 L197.76824,151.234537 L137.015905,151.234537 L161.57536,122.797273 L169.330977,122.797273 L169.330977,58.1671295 L157.697551,58.1671295 L182.257006,28.4372633 L197.76824,28.4372633 Z" fill="#F7A41D"></path>
        <path d="M461.717748,27.9202222 C480.201969,27.9202222 499.461752,35.029538 512,46.0166625 L495.196163,65.4057056 C486.018682,57.2623075 473.480434,52.4796768 461.717748,52.4796768 C439.743499,52.4796768 422.681141,69.154254 422.681141,90.6114618 C422.681141,112.32719 439.872759,128.872507 461.847008,128.872507 C469.096714,128.872507 478.098499,125.99409 486.020098,121.961244 L486.018682,104.700833 L447.240596,86.6043928 L509.285534,86.6043928 L509.285534,137.015905 C496.100985,146.451906 478.263065,152.52714 460.554405,152.52714 C423.068922,152.52714 394.502398,125.641 394.502398,90.0944206 C394.502398,54.806362 423.585963,27.9202222 461.717748,27.9202222 Z M336.076748,28.4372633 L336.076748,47.8263065 L267.568796,127.967685 L337.369351,127.967685 L337.369351,151.234537 L227.498107,151.234537 L227.498107,133.138096 L296.006059,51.7041151 L228.790709,51.7041151 L228.790709,28.4372633 L336.076748,28.4372633 Z M380.025246,28.4372633 L380.025246,151.234537 L351.587983,151.234537 L351.587983,28.4372633 L380.025246,28.4372633 Z" fill="#121212"></path>
    </g>
</svg>
